X:248
T: Der verwundete Knabe (21a), S87
N: T0137
O: Luxemburg
S: Singendes Volk, Esch-Alzette 1937 posth.]
N: Kntzig, fff Wachtmeister-Kaiser, 28.12.1932
R: Liebeslieder]
M: 2/4
L: 1/8
K: G
D2 | B2AA | G2D2 |
ee | d3c | B2d2 | A2z2 |
d2 | dddc | B3c | d2
e2 | ddcB | A3B | c2
ce | dddc | B2

@@@ Tune index: 8302
